(Exported by FreeCAD)
(Post Processor: grbl_post)
(Output Time:2026-03-15 17:49:05.166982)
(Begin preamble)
G17 G90
G21
(Begin operation: TC: 2.5mm Drillbit)
(Path: TC: 2.5mm Drillbit)
(TC: 2.5mm Drillbit)
(Begin toolchange)
( M6 T4 )
M3 S18000
(Finish operation: TC: 2.5mm Drillbit)
(Begin operation: Fixture)
(Path: Fixture)
G54
(Finish operation: Fixture)
(Begin operation: DrillingMountingHoles)
(Path: DrillingMountingHoles)
(DrillingMountingHoles)
(Begin Drilling)
G90
G0 Z5.000
( G98 )
G0 X4.184 Y4.325
G0 Z3.000
(G81 X4.184 Y4.325 Z-2.500 F75.000 R3.000)
G0 X4.184 Y4.325
G1 Z-2.500 F75.00
G0 Z3.000
G0 X4.184 Y52.825
(G81 X4.184 Y52.825 Z-2.500 F75.000 R3.000)
G0 X4.184 Y52.825
G1 Z-2.500 F75.00
G0 Z3.000
G0 X63.684 Y52.825
(G81 X63.684 Y52.825 Z-2.500 F75.000 R3.000)
G0 X63.684 Y52.825
G1 Z-2.500 F75.00
G0 Z3.000
G0 X63.684 Y4.325
(G81 X63.684 Y4.325 Z-2.500 F75.000 R3.000)
G0 X63.684 Y4.325
G1 Z-2.500 F75.00
G0 Z3.000
( G80 )
G0 Z5.000
(Finish operation: DrillingMountingHoles)
(Begin postamble)
M5
G17 G90
M2
