(Exported by FreeCAD)
(Post Processor: grbl_post)
(Output Time:2026-03-15 17:49:03.633457)
(Begin preamble)
G17 G90
G21
(Begin operation: TC: 1mm Drill)
(Path: TC: 1mm Drill)
(TC: 1mm Drill)
(Begin toolchange)
( M6 T2 )
M3 S18000
(Finish operation: TC: 1mm Drill)
(Begin operation: Fixture)
(Path: Fixture)
G54
(Finish operation: Fixture)
(Begin operation: DrillingThroughHoles)
(Path: DrillingThroughHoles)
(DrillingThroughHoles)
(Begin Drilling)
G90
G0 Z5.000
( G98 )
G0 X12.694 Y5.105
G0 Z3.000
(G81 X12.694 Y5.105 Z-2.500 F75.000 R3.000)
G0 X12.694 Y5.105
G1 Z-2.500 F75.00
G0 Z3.000
G0 X15.235 Y5.105
(G81 X15.235 Y5.105 Z-2.500 F75.000 R3.000)
G0 X15.235 Y5.105
G1 Z-2.500 F75.00
G0 Z3.000
G0 X24.154 Y5.105
(G81 X24.154 Y5.105 Z-2.500 F75.000 R3.000)
G0 X24.154 Y5.105
G1 Z-2.500 F75.00
G0 Z3.000
G0 X26.694 Y5.105
(G81 X26.694 Y5.105 Z-2.500 F75.000 R3.000)
G0 X26.694 Y5.105
G1 Z-2.500 F75.00
G0 Z3.000
G0 X41.934 Y3.484
(G81 X41.934 Y3.484 Z-2.500 F75.000 R3.000)
G0 X41.934 Y3.484
G1 Z-2.500 F75.00
G0 Z3.000
G0 X44.474 Y3.484
(G81 X44.474 Y3.484 Z-2.500 F75.000 R3.000)
G0 X44.474 Y3.484
G1 Z-2.500 F75.00
G0 Z3.000
G0 X47.015 Y3.484
(G81 X47.015 Y3.484 Z-2.500 F75.000 R3.000)
G0 X47.015 Y3.484
G1 Z-2.500 F75.00
G0 Z3.000
G0 X49.555 Y3.484
(G81 X49.555 Y3.484 Z-2.500 F75.000 R3.000)
G0 X49.555 Y3.484
G1 Z-2.500 F75.00
G0 Z3.000
G0 X49.555 Y18.725
(G81 X49.555 Y18.725 Z-2.500 F75.000 R3.000)
G0 X49.555 Y18.725
G1 Z-2.500 F75.00
G0 Z3.000
G0 X47.015 Y18.725
(G81 X47.015 Y18.725 Z-2.500 F75.000 R3.000)
G0 X47.015 Y18.725
G1 Z-2.500 F75.00
G0 Z3.000
G0 X44.474 Y18.725
(G81 X44.474 Y18.725 Z-2.500 F75.000 R3.000)
G0 X44.474 Y18.725
G1 Z-2.500 F75.00
G0 Z3.000
G0 X41.934 Y18.725
(G81 X41.934 Y18.725 Z-2.500 F75.000 R3.000)
G0 X41.934 Y18.725
G1 Z-2.500 F75.00
G0 Z3.000
G0 X39.395 Y18.725
(G81 X39.395 Y18.725 Z-2.500 F75.000 R3.000)
G0 X39.395 Y18.725
G1 Z-2.500 F75.00
G0 Z3.000
G0 X52.094 Y18.725
(G81 X52.094 Y18.725 Z-2.500 F75.000 R3.000)
G0 X52.094 Y18.725
G1 Z-2.500 F75.00
G0 Z3.000
G0 X26.694 Y32.105
(G81 X26.694 Y32.105 Z-2.500 F75.000 R3.000)
G0 X26.694 Y32.105
G1 Z-2.500 F75.00
G0 Z3.000
G0 X24.154 Y32.105
(G81 X24.154 Y32.105 Z-2.500 F75.000 R3.000)
G0 X24.154 Y32.105
G1 Z-2.500 F75.00
G0 Z3.000
G0 X15.235 Y32.105
(G81 X15.235 Y32.105 Z-2.500 F75.000 R3.000)
G0 X15.235 Y32.105
G1 Z-2.500 F75.00
G0 Z3.000
G0 X12.694 Y32.105
(G81 X12.694 Y32.105 Z-2.500 F75.000 R3.000)
G0 X12.694 Y32.105
G1 Z-2.500 F75.00
G0 Z3.000
( G80 )
G0 Z5.000
(Finish operation: DrillingThroughHoles)
(Begin postamble)
M5
G17 G90
M2
