(Exported by FreeCAD)
(Post Processor: grbl_post)
(Output Time:2026-03-16 21:47:22.213481)
(Begin preamble)
G17 G90
G21
(Begin operation: TC: 1mm Drill001)
(Path: TC: 1mm Drill001)
(TC: 1mm Drill001)
(Begin toolchange)
( M6 T2 )
M3 S18000
(Finish operation: TC: 1mm Drill001)
(Begin operation: Fixture)
(Path: Fixture)
G54
(Finish operation: Fixture)
(Begin operation: DrillingThroughHoles001)
(Path: DrillingThroughHoles001)
(DrillingThroughHoles001)
(Begin Drilling)
G90
G0 Z5.020
( G98 )
G0 X12.670 Y5.080
G0 Z3.020
(G81 X12.670 Y5.080 Z-2.500 F75.000 R3.020)
G0 X12.670 Y5.080
G1 Z-2.500 F75.00
G0 Z3.020
G0 X15.210 Y5.080
(G81 X15.210 Y5.080 Z-2.500 F75.000 R3.020)
G0 X15.210 Y5.080
G1 Z-2.500 F75.00
G0 Z3.020
G0 X24.130 Y5.080
(G81 X24.130 Y5.080 Z-2.500 F75.000 R3.020)
G0 X24.130 Y5.080
G1 Z-2.500 F75.00
G0 Z3.020
G0 X26.670 Y5.080
(G81 X26.670 Y5.080 Z-2.500 F75.000 R3.020)
G0 X26.670 Y5.080
G1 Z-2.500 F75.00
G0 Z3.020
G0 X41.910 Y2.190
(G81 X41.910 Y2.190 Z-2.500 F75.000 R3.020)
G0 X41.910 Y2.190
G1 Z-2.500 F75.00
G0 Z3.020
G0 X44.450 Y2.190
(G81 X44.450 Y2.190 Z-2.500 F75.000 R3.020)
G0 X44.450 Y2.190
G1 Z-2.500 F75.00
G0 Z3.020
G0 X46.990 Y2.190
(G81 X46.990 Y2.190 Z-2.500 F75.000 R3.020)
G0 X46.990 Y2.190
G1 Z-2.500 F75.00
G0 Z3.020
G0 X49.530 Y2.190
(G81 X49.530 Y2.190 Z-2.500 F75.000 R3.020)
G0 X49.530 Y2.190
G1 Z-2.500 F75.00
G0 Z3.020
G0 X49.530 Y19.970
(G81 X49.530 Y19.970 Z-2.500 F75.000 R3.020)
G0 X49.530 Y19.970
G1 Z-2.500 F75.00
G0 Z3.020
G0 X46.990 Y19.970
(G81 X46.990 Y19.970 Z-2.500 F75.000 R3.020)
G0 X46.990 Y19.970
G1 Z-2.500 F75.00
G0 Z3.020
G0 X44.450 Y19.970
(G81 X44.450 Y19.970 Z-2.500 F75.000 R3.020)
G0 X44.450 Y19.970
G1 Z-2.500 F75.00
G0 Z3.020
G0 X41.910 Y19.970
(G81 X41.910 Y19.970 Z-2.500 F75.000 R3.020)
G0 X41.910 Y19.970
G1 Z-2.500 F75.00
G0 Z3.020
G0 X39.370 Y19.970
(G81 X39.370 Y19.970 Z-2.500 F75.000 R3.020)
G0 X39.370 Y19.970
G1 Z-2.500 F75.00
G0 Z3.020
G0 X52.070 Y19.970
(G81 X52.070 Y19.970 Z-2.500 F75.000 R3.020)
G0 X52.070 Y19.970
G1 Z-2.500 F75.00
G0 Z3.020
G0 X26.670 Y32.080
(G81 X26.670 Y32.080 Z-2.500 F75.000 R3.020)
G0 X26.670 Y32.080
G1 Z-2.500 F75.00
G0 Z3.020
G0 X24.130 Y32.080
(G81 X24.130 Y32.080 Z-2.500 F75.000 R3.020)
G0 X24.130 Y32.080
G1 Z-2.500 F75.00
G0 Z3.020
G0 X15.210 Y32.080
(G81 X15.210 Y32.080 Z-2.500 F75.000 R3.020)
G0 X15.210 Y32.080
G1 Z-2.500 F75.00
G0 Z3.020
G0 X12.670 Y32.080
(G81 X12.670 Y32.080 Z-2.500 F75.000 R3.020)
G0 X12.670 Y32.080
G1 Z-2.500 F75.00
G0 Z3.020
( G80 )
G0 Z5.020
(Finish operation: DrillingThroughHoles001)
(Begin postamble)
M5
G17 G90
M2
