(Exported by FreeCAD)
(Post Processor: grbl_post)
(Output Time:2026-03-16 21:47:23.626507)
(Begin preamble)
G17 G90
G21
(Begin operation: TC: 2.5mm Drillbit001)
(Path: TC: 2.5mm Drillbit001)
(TC: 2.5mm Drillbit001)
(Begin toolchange)
( M6 T3 )
M3 S18000
(Finish operation: TC: 2.5mm Drillbit001)
(Begin operation: Fixture)
(Path: Fixture)
G54
(Finish operation: Fixture)
(Begin operation: DrillingMountingHoles001)
(Path: DrillingMountingHoles001)
(DrillingMountingHoles001)
(Begin Drilling)
G90
G0 Z5.020
( G98 )
G0 X4.160 Y4.300
G0 Z3.020
(G81 X4.160 Y4.300 Z-2.500 F75.000 R3.020)
G0 X4.160 Y4.300
G1 Z-2.500 F75.00
G0 Z3.020
G0 X4.160 Y52.800
(G81 X4.160 Y52.800 Z-2.500 F75.000 R3.020)
G0 X4.160 Y52.800
G1 Z-2.500 F75.00
G0 Z3.020
G0 X63.660 Y52.800
(G81 X63.660 Y52.800 Z-2.500 F75.000 R3.020)
G0 X63.660 Y52.800
G1 Z-2.500 F75.00
G0 Z3.020
G0 X63.660 Y4.300
(G81 X63.660 Y4.300 Z-2.500 F75.000 R3.020)
G0 X63.660 Y4.300
G1 Z-2.500 F75.00
G0 Z3.020
( G80 )
G0 Z5.020
(Finish operation: DrillingMountingHoles001)
(Begin postamble)
M5
G17 G90
M2
