(Exported by FreeCAD)
(Post Processor: grbl_post)
(Output Time:2026-03-15 17:49:06.527629)
(Begin preamble)
G17 G90
G21
(Begin operation: TC: 0.6mm Drill)
(Path: TC: 0.6mm Drill)
(TC: 0.6mm Drill)
(Begin toolchange)
( M6 T5 )
M3 S18000
(Finish operation: TC: 0.6mm Drill)
(Begin operation: Fixture)
(Path: Fixture)
G54
(Finish operation: Fixture)
(Begin operation: DrillingVias)
(Path: DrillingVias)
(DrillingVias)
(Begin Drilling)
G90
G0 Z5.000
( G98 )
G0 X5.867 Y20.345
G0 Z3.000
(G81 X5.867 Y20.345 Z-2.500 F75.000 R4.000)
G0 Z4.000
G0 X5.867 Y20.345
G1 Z-2.500 F75.00
G0 Z4.000
G0 X7.645 Y28.600
(G81 X7.645 Y28.600 Z-2.500 F75.000 R4.000)
G0 Z4.000
G0 X7.645 Y28.600
G1 Z-2.500 F75.00
G0 Z4.000
G0 X2.882 Y46.697
(G81 X2.882 Y46.697 Z-2.500 F75.000 R4.000)
G0 Z4.000
G0 X2.882 Y46.697
G1 Z-2.500 F75.00
G0 Z4.000
G0 X13.359 Y50.824
(G81 X13.359 Y50.824 Z-2.500 F75.000 R4.000)
G0 Z4.000
G0 X13.359 Y50.824
G1 Z-2.500 F75.00
G0 Z4.000
G0 X29.870 Y43.205
(G81 X29.870 Y43.205 Z-2.500 F75.000 R4.000)
G0 Z4.000
G0 X29.870 Y43.205
G1 Z-2.500 F75.00
G0 Z4.000
G0 X35.330 Y28.219
(G81 X35.330 Y28.219 Z-2.500 F75.000 R4.000)
G0 Z4.000
G0 X35.330 Y28.219
G1 Z-2.500 F75.00
G0 Z4.000
G0 X48.285 Y27.329
(G81 X48.285 Y27.329 Z-2.500 F75.000 R4.000)
G0 Z4.000
G0 X48.285 Y27.329
G1 Z-2.500 F75.00
G0 Z4.000
( G80 )
G0 Z5.000
(Finish operation: DrillingVias)
(Begin postamble)
M5
G17 G90
M2
