(Exported by FreeCAD)
(Post Processor: grbl_post)
(Output Time:2026-03-16 21:47:24.253368)
(Begin preamble)
G17 G90
G21
(Begin operation: TC: 0.6mm Drill001)
(Path: TC: 0.6mm Drill001)
(TC: 0.6mm Drill001)
(Begin toolchange)
( M6 T5 )
M3 S18000
(Finish operation: TC: 0.6mm Drill001)
(Begin operation: Fixture)
(Path: Fixture)
G54
(Finish operation: Fixture)
(Begin operation: DrillingVias001)
(Path: DrillingVias001)
(DrillingVias001)
(Begin Drilling)
G90
G0 Z5.020
( G98 )
G0 X5.842 Y20.320
G0 Z3.020
(G81 X5.842 Y20.320 Z-2.500 F75.000 R4.020)
G0 Z4.020
G0 X5.842 Y20.320
G1 Z-2.500 F75.00
G0 Z4.020
G0 X7.620 Y28.575
(G81 X7.620 Y28.575 Z-2.500 F75.000 R4.020)
G0 Z4.020
G0 X7.620 Y28.575
G1 Z-2.500 F75.00
G0 Z4.020
G0 X2.857 Y46.673
(G81 X2.857 Y46.673 Z-2.500 F75.000 R4.020)
G0 Z4.020
G0 X2.857 Y46.673
G1 Z-2.500 F75.00
G0 Z4.020
G0 X13.335 Y50.800
(G81 X13.335 Y50.800 Z-2.500 F75.000 R4.020)
G0 Z4.020
G0 X13.335 Y50.800
G1 Z-2.500 F75.00
G0 Z4.020
G0 X29.845 Y43.180
(G81 X29.845 Y43.180 Z-2.500 F75.000 R4.020)
G0 Z4.020
G0 X29.845 Y43.180
G1 Z-2.500 F75.00
G0 Z4.020
G0 X35.306 Y28.194
(G81 X35.306 Y28.194 Z-2.500 F75.000 R4.020)
G0 Z4.020
G0 X35.306 Y28.194
G1 Z-2.500 F75.00
G0 Z4.020
G0 X35.306 Y28.194
(G81 X35.306 Y28.194 Z-2.500 F75.000 R4.020)
G0 Z4.020
G0 X35.306 Y28.194
G1 Z-2.500 F75.00
G0 Z4.020
G0 X48.260 Y27.305
(G81 X48.260 Y27.305 Z-2.500 F75.000 R4.020)
G0 Z4.020
G0 X48.260 Y27.305
G1 Z-2.500 F75.00
G0 Z4.020
G0 X48.260 Y27.305
(G81 X48.260 Y27.305 Z-2.500 F75.000 R4.020)
G0 Z4.020
G0 X48.260 Y27.305
G1 Z-2.500 F75.00
G0 Z4.020
( G80 )
G0 Z5.020
(Finish operation: DrillingVias001)
(Begin postamble)
M5
G17 G90
M2
